X:33
T:Humour of the Derry Millers, The
R:slip jig
H:See also #3
Z:id:hn-slipji


*****************************


18200 0 1.1741362 

<starion al af ge fe |
fe fef g2e | fed efg a2g | agf gfe fed | e2e fed cAG:|
|: fed e2f g2e | fed efg a2


*****************************


18300 0 1.6779486 

<starion af gfe |
|: fed edB | def gfe | def gfe | def gfe | def gfe | def gfe | def gfe | def gfe | def 


*****************************


18400 0 1.7167633 

<starig
H:Also a also #3
Z:id:hn-slipjig-55
M:9/8
K:G
d2B d2B d2B|BAG G2B d2B|BAB A2B cAB|A2B d2B cAB|1 d


*****************************


18500 0 1.5084577 

<starion s: I fe the wead the weane to the weane and the wee and the weane the and the weand the weand th


*****************************


18600 0 2.6571586 

<starion s Also #33
D:Paddy Berrigh to the Dunne to the Dinch the Band the seand the Furster to the Dune 


*****************************


18700 0 1.4013613 

<starion s the Bor the Bor to the Bareed to the Bare
R:slip jig
H:See also #37
Z:id:hn-slipjig-77
M:9/8
K


*****************************


18800 0 1.8265108 

<starion s af the Bor the Bor the Bane to #38
Z:hn-slipjig-88
M:9/8
L:1/8
K:G
B2A BAB cBA | BAB cAB cAB |


*****************************


18900 0 1.5644559 

<starion s the Bare the and the and of the alle to the and of the and of the alle to the a a a a a a a a 


*****************************


19000 0 1.3281947 

<starions
|: A2A BAB | ABA BAB | A2B A2B | A2B A2B | A3 A2B | A2B d2e | fed efe | d3 d2e | fed efe | d3 d


*****************************


19100 0 1.0894834 

<starions
|: G2A B2A|B2A B2A|B2A B2A|B2A B2A|B2A B2A|B2A B2A|BAB A2B|c2A A2B|A2B A2B|A2A BAB|c2A B2A|BAB 


*****************************


19200 0 1.4572312 

<starions
|:A2A AGE|G2A G2A|B2A G2A|B2A G2A|G2A G2A|B2A G2A|B2A G2A||
|:B2A AGE|G2A G2A|B2A G2A|B2A G2A|B


*****************************


19300 0 1.1423513 

<starions
|:A2B B2A|B2A B2A|B2A B2A|B2A B2B|c2A B2A|B2A B2A|B2A B2A|B2A B2A|B2A B2A|B2A B2A|B2A B2A|B2A B


*****************************


19400 0 1.1592338 

<starion 22
<end>
<start>
